X: 81
T: The humors of Ballycastle
C: anon.
O: Ireland
B: Francis O'Neill: "The Dance Music of Ireland" (1907) no. 81
R: Double jig
Z: Transcribed by Frank Nordberg - http://www.musicaviva.com
F: http://www.musicaviva.com/abc/tunes/ireland/oneill-1001/oneill-1001-008
1.abc
M: 6/8
L: 1/8
K: A
E|{B}AGA cBA|faf ecA|{B}AGA cBc|FGA BGE|{B}AGA cBA|faf ecA|BdB cec|ABA A2
:|
|:g|agf efg|aba gfe|(c/e/) z f (f2e)|(c/e/) z f (f2g)|agf edc|faf ecA|BdB
 cec|ABA A2:|
W:
W:
W: From Musica Viva - http://www.musicaviva.com
W: the Internet center for free sheet music downloads.


